X: 19052
T: Tam Glen
O: Old Song
R: waltz
B: RSCDS 19-5(II)
Z: 1997 by John Chambers <jc:trillian.mit.edu>
M: 3/4
L: 1/8
%--------------------
K: Em
BA \
| "Em"G2 E2 E2 | E2 G2 "Bm"D2 | "Em"E2 G3 A | "G"B3 A G2 | G2 A2 B2 | "D"D4 BA |
| "Em"G2 E2 E2 | E2 G2 D2 | E2 e3 d | "B"B3 A G2 | "Am"A2 "B7"B2 G2 | "Em"E4 :|
|: "(D7)"d2 \
| "G"B2 d2 e2 | "Bm"d2 B2 A2 | "Em"G2 A3 B | "D"A2 "G"B2 d2 | B2 A2 G2 | "D"D4 "B7"BA |
| "Em"G2 E2 E2 | E2 G2 "Bm"D2 | "Em"E2 e3 d | "G"B3 A G2 | "Am"A2 "B7"B2 G2 | "Em"E4 ||
%%center Book19/19052-Tam_Glen-1.abc

%%sep 1 1 500
%%sep 1 1 500

